docs/assets/images/subscription-annual.svg

<svg xmlns="http://www.w3.org/2000/svg" width="68" height="68" fill="none" viewBox="0 0 68 68"><path fill="#E4BC07" d="M23.5778 17.6361C24.484 17.6361 25.3105 17.9783 25.935 18.5387L26.024 18.6497C25.3457 19.1953 24.4914 19.5319 23.5611 19.5634C23.5074 19.5671 23.4592 19.5671 23.4055 19.5671V19.5781C22.3862 19.6743 22.0397 20.4104 22.0397 21.1595C22.0397 22.0232 22.579 22.7483 23.5537 22.7853C24.8102 22.7594 25.9906 22.4154 27.0173 21.8383L27.0284 21.8586C26.7004 23.4622 25.279 24.6662 23.576 24.6662C21.6301 24.6662 20.0531 23.0923 20.0531 21.1503C20.0531 19.2082 21.6301 17.6343 23.576 17.6343L23.5778 17.6361Z"/><path fill="#E4BC07" d="M47.567 21.8401L47.5781 21.8605C47.2501 23.464 45.8287 24.6681 44.1256 24.6681C42.1798 24.6681 40.6028 23.0941 40.6028 21.1521C40.6028 19.2101 42.1798 17.6361 44.1256 17.6361C45.0318 17.6361 45.8583 17.9783 46.4829 18.5387L46.5718 18.6497C45.8936 19.1953 45.0392 19.5319 44.109 19.5633C44.0552 19.567 44.007 19.567 43.9533 19.567V19.5781C42.9341 19.6743 42.5875 20.4104 42.5875 21.1595C42.5875 22.0232 43.1268 22.7483 44.1015 22.7852C45.358 22.7593 46.5385 22.4153 47.5651 21.8383L47.567 21.8401Z"/><path fill="#002140" d="M48.1507 15.3797C48.1507 15.2798 48.147 15.1799 48.1396 15.0801C47.9876 12.9068 46.1734 11.1886 43.9533 11.1886C41.7332 11.1886 40.0783 12.7589 39.7967 14.7989V15.0856H36.5499V14.8156C36.8464 11.0037 40.0394 8 43.9366 8C47.8338 8 51.188 11.1516 51.34 15.0986C51.3437 15.1947 51.3455 15.2928 51.3455 15.3908C51.3455 18.1559 49.8223 20.5714 47.567 21.8364C46.5403 22.4135 45.3598 22.7557 44.1034 22.7834C43.1286 22.7446 42.5894 22.0214 42.5894 21.1577C42.5894 20.4067 42.9359 19.6725 43.9551 19.5763V19.5652C44.0089 19.5652 44.0571 19.5652 44.1108 19.5615C45.0411 19.5301 45.8954 19.1916 46.5737 18.6478C47.5373 17.884 48.1526 16.7021 48.1526 15.3778L48.1507 15.3797Z"/><path fill="#002140" d="M19.2766 14.6084V15.0856H15.9854C15.9891 14.995 15.9947 14.9062 16.0002 14.8156C16.2967 11.0055 19.4916 8.00183 23.3869 8.00183C27.2823 8.00183 30.6291 11.1479 30.7903 15.0893C30.794 15.1892 30.7959 15.2909 30.7959 15.3945C30.7959 18.1595 29.2726 20.575 27.0173 21.8401C25.9906 22.4172 24.8102 22.7594 23.5537 22.7871C22.579 22.7483 22.0397 22.0251 22.0397 21.1613C22.0397 20.4104 22.3862 19.6762 23.4055 19.58V19.5689C23.4592 19.5689 23.5074 19.5689 23.5611 19.5652C24.4914 19.5337 25.3457 19.1953 26.024 18.6515C26.9876 17.8877 27.6029 16.7058 27.6029 15.3815C27.6029 15.2816 27.5992 15.1855 27.5918 15.0893C27.4416 12.9124 25.6255 11.1923 23.4055 11.1923C21.354 11.1923 19.6398 12.6664 19.2785 14.6121L19.2766 14.6084Z"/><path fill="#FFFAF0" d="M54.1253 26.2513H54.5385V52.931C54.5385 54.8657 52.9541 56.447 51.0157 56.447H16.6173C14.6789 56.447 13.0945 54.8657 13.0945 52.931V26.2513H54.1253Z"/><path fill="#FED607" d="M51.3659 15.1005C53.1412 15.2799 54.5385 16.7854 54.5385 18.6017V26.2514H44.1256V24.6663C45.8287 24.6663 47.2482 23.4623 47.578 21.8587L47.5669 21.8384C49.8222 20.5733 51.3455 18.1578 51.3455 15.3927C51.3455 15.2928 51.3418 15.1966 51.34 15.1005H51.3659Z"/><path fill="#FED607" d="M48.1507 15.3797C48.1507 16.704 47.5336 17.884 46.5718 18.6497L46.4829 18.5387C45.8584 17.9783 45.0318 17.6361 44.1256 17.6361C42.1798 17.6361 40.6028 19.2101 40.6028 21.1521C40.6028 23.0942 42.1798 24.6681 44.1256 24.6681V26.2532H23.5778V24.6681C25.2809 24.6681 26.7004 23.4641 27.0303 21.8605L27.0191 21.8402C29.2744 20.5751 30.7977 18.1596 30.7977 15.3945C30.7977 15.2928 30.794 15.1892 30.7922 15.0893L30.9182 15.0856H48.0469L48.1414 15.0801C48.1507 15.18 48.1526 15.2798 48.1526 15.3797H48.1507Z"/><path fill="#FED607" d="M23.5778 26.2513H13.0945V18.6016C13.0945 16.8815 14.3472 15.4425 15.9854 15.1448C16.1911 15.1059 16.4024 15.0856 16.6173 15.0856H27.5899C27.5992 15.1817 27.601 15.2798 27.601 15.3778C27.601 16.7021 26.9839 17.8821 26.0221 18.6478L25.9332 18.5368C25.3087 17.9764 24.4821 17.6342 23.576 17.6342C21.6301 17.6342 20.0531 19.2082 20.0531 21.1502C20.0531 23.0923 21.6301 24.6662 23.576 24.6662V26.2513H23.5778Z"/><path stroke="#002140" stroke-miterlimit="10" d="M30.9163 15.0856H36.5499H39.7967H48.0451"/><path stroke="#002140" stroke-miterlimit="10" d="M16.0873 15.0856H17.9331H17.9664H27.588H27.6029"/><path stroke="#002140" stroke-miterlimit="10" d="M16.6173 56.4469C14.6789 56.4469 13.0945 54.8656 13.0945 52.931V18.6016C13.0945 16.8815 14.3472 15.4425 15.9854 15.1448C16.1911 15.1059 16.4024 15.0856 16.6173 15.0856"/><path stroke="#002140" stroke-miterlimit="10" d="M51.2955 15.1003C53.1116 15.2797 54.5385 16.7834 54.5385 18.5997V52.9161C54.5385 54.8489 52.9189 56.4303 50.9379 56.4303H15.9947"/><path stroke="#002140" stroke-miterlimit="10" d="M13 26.2513H15.2256H25.1641H44.6464H54.1253"/><path stroke="#002140" stroke-miterlimit="10" d="M15.9799 15.3945C15.9799 15.3131 15.9799 15.228 15.9854 15.1448C15.9817 15.1244 15.9854 15.1059 15.9854 15.0856C15.9891 14.995 15.9947 14.9062 16.0002 14.8156"/><path stroke="#002140" stroke-miterlimit="10" d="M16.0002 14.8174C16.2967 11.0055 19.4916 8.00183 23.3869 8.00183C27.2823 8.00183 30.6291 11.1479 30.7903 15.0893C30.794 15.1892 30.7959 15.2909 30.7959 15.3945C30.7959 18.1595 29.2726 20.575 27.0173 21.8401C25.9906 22.4172 24.8102 22.7594 23.5537 22.7871C23.4981 22.7908 23.4425 22.7908 23.3869 22.7908"/><path stroke="#002140" stroke-miterlimit="10" d="M19.247 14.7989C19.2563 14.7342 19.2655 14.6731 19.2767 14.6084C19.638 12.6627 21.3522 11.1886 23.4036 11.1886C25.6237 11.1886 27.4398 12.9087 27.5899 15.0856C27.5992 15.1818 27.6011 15.2798 27.6011 15.3778C27.6011 16.7021 26.9839 17.8821 26.0222 18.6478C25.3439 19.1934 24.4896 19.53 23.5593 19.5615C23.5056 19.5652 23.4574 19.5652 23.4036 19.5652"/><path stroke="#002140" stroke-miterlimit="10" d="M23.8391 22.7797C23.7835 22.7852 23.7279 22.7889 23.6723 22.7889C23.6316 22.7889 23.5927 22.7889 23.5556 22.7852C22.5808 22.7464 22.0416 22.0232 22.0416 21.1595C22.0416 20.4086 22.3881 19.6743 23.4073 19.5781C23.4574 19.5726 23.5093 19.5689 23.563 19.567"/><path stroke="#002140" stroke-miterlimit="10" d="M36.5499 14.8174C36.8464 11.0055 40.0394 8.00183 43.9366 8.00183C47.8338 8.00183 51.188 11.1535 51.34 15.1004C51.3437 15.1966 51.3455 15.2946 51.3455 15.3926C51.3455 18.1577 49.8223 20.5732 47.567 21.8383C46.5403 22.4153 45.3598 22.7575 44.1034 22.7852C44.0478 22.7889 43.9922 22.7889 43.9366 22.7889"/><path stroke="#002140" stroke-miterlimit="10" d="M39.7967 14.7989C40.0784 12.7589 41.8333 11.1886 43.9533 11.1886C46.0733 11.1886 47.9877 12.905 48.1396 15.08C48.1489 15.1799 48.1507 15.2798 48.1507 15.3797C48.1507 16.7039 47.5336 17.884 46.5718 18.6497C45.8936 19.1953 45.0393 19.5319 44.109 19.5633C44.0553 19.567 44.0071 19.567 43.9533 19.567"/><path stroke="#002140" stroke-miterlimit="10" d="M44.3888 22.7797C44.3332 22.7852 44.2776 22.7889 44.222 22.7889C44.1813 22.7889 44.1423 22.7889 44.1053 22.7852C43.1305 22.7464 42.5912 22.0232 42.5912 21.1595C42.5912 20.4086 42.9378 19.6743 43.957 19.5781C44.0071 19.5726 44.059 19.5689 44.1127 19.567"/><path fill="#50EEF6" stroke="#002140" d="M34.6897 37.605L34.6897 37.6049L34.6839 37.6032C33.9664 37.3904 33.4302 37.1825 33.0723 36.9008C32.7499 36.647 32.5625 36.3267 32.5625 35.8011C32.5625 35.2383 32.7731 34.8441 33.0898 34.5817C33.418 34.3098 33.9007 34.1476 34.4792 34.1476C35.0229 34.1476 35.4697 34.3169 35.8242 34.6318C36.1845 34.9518 36.4813 35.4512 36.6613 36.1589L36.6715 36.199L36.6881 36.2369C36.6993 36.2623 36.7113 36.2901 36.7241 36.32C36.8056 36.5091 36.9218 36.779 37.0752 37.0016C37.2574 37.266 37.5711 37.5804 38.0625 37.5804C38.6347 37.5804 39.002 37.1572 39.2009 36.6983C39.4032 36.2318 39.5 35.6007 39.5 34.863C39.5 34.1043 39.3795 33.3126 39.1308 32.6915C38.9009 32.117 38.4604 31.4632 37.7083 31.4632C37.2692 31.4632 36.9103 31.6724 36.6711 32.0036C36.4557 31.9017 36.2211 31.8065 35.9735 31.7265L36.0784 30.9887L36.0799 30.9779L36.081 30.967C36.0883 30.8919 36.0983 30.8153 36.109 30.7337C36.1121 30.7103 36.1152 30.6866 36.1183 30.6623C36.1305 30.5679 36.1458 30.4445 36.1458 30.3427C36.1458 30.09 36.0925 29.7873 35.8717 29.5495C35.6442 29.3044 35.3298 29.2244 35.0208 29.2244C34.6532 29.2244 34.3221 29.3555 34.0794 29.6469C33.859 29.9114 33.7512 30.2619 33.6936 30.6273L33.6935 30.6273L33.6923 30.6361L33.5828 31.4204C30.8659 31.6448 28.5208 33.5766 28.5208 36.5687C28.5208 38.0155 29.0788 39.1001 29.9408 39.9014C30.7862 40.6871 31.9051 41.1842 33.0208 41.5246L33.0208 41.5246L33.0263 41.5262C33.7371 41.7341 34.2842 41.9715 34.6499 42.2827C34.9906 42.5725 35.1875 42.9363 35.1875 43.477C35.1875 44.0391 34.972 44.4634 34.6311 44.7546C34.2821 45.0525 33.7688 45.2372 33.1458 45.2372C31.9457 45.2372 30.8964 44.3733 30.4503 43.1177C30.419 43.0295 30.3851 42.927 30.3489 42.8176C30.2611 42.5518 30.1597 42.2449 30.048 42.0022C29.9657 41.8231 29.8569 41.6276 29.7058 41.4713C29.5467 41.3069 29.318 41.1647 29.0208 41.1647C28.464 41.1647 28.0793 41.6013 27.8599 42.0842C27.63 42.5902 27.5 43.2971 27.5 44.1807C27.5 45.1155 27.6586 45.9706 27.9374 46.611C28.0765 46.9306 28.2553 47.2193 28.48 47.4349C28.7076 47.6533 29.0038 47.815 29.3542 47.815C29.8142 47.815 30.1756 47.5907 30.4197 47.2625C30.7949 47.4389 31.2276 47.6017 31.6912 47.7228L31.5894 48.4522C31.5458 48.6998 31.5208 48.9404 31.5208 49.106C31.5208 49.3587 31.5742 49.6614 31.795 49.8993C32.0225 50.1444 32.3369 50.2244 32.6458 50.2244C33.0105 50.2244 33.3459 50.0954 33.5921 49.8054C33.8194 49.5377 33.9277 49.1825 33.9751 48.8072C33.9751 48.8068 33.9752 48.8065 33.9752 48.8061L34.0879 47.9414C36.9729 47.7009 39.2083 45.7036 39.2083 42.7521C39.2083 41.3143 38.6784 40.1964 37.8293 39.3513C36.9931 38.5191 35.8677 37.97 34.6897 37.605Z"/></svg>

<svg xmlns="http://www.w3.org/2000/svg" width="68" height="68" fill="none" viewBox="0 0 68 68">
  <path fill="#E4BC07" d="M23.578 17.636c.906 0 1.733.342 2.357.903l.089.11a4.14 4.14 0 0 1-2.463.914c-.054.004-.102.004-.155.004v.011c-1.02.096-1.366.832-1.366 1.582 0 .863.539 1.588 1.514 1.625a7.4 7.4 0 0 0 3.463-.947l.011.02a3.52 3.52 0 0 1-3.452 2.808 3.52 3.52 0 0 1-3.523-3.516 3.52 3.52 0 0 1 3.523-3.516zm23.989 4.204.011.02a3.52 3.52 0 0 1-3.452 2.808 3.52 3.52 0 0 1-3.523-3.516 3.52 3.52 0 0 1 3.523-3.516 3.52 3.52 0 0 1 2.357.903l.089.11a4.14 4.14 0 0 1-2.463.914c-.054.004-.102.004-.156.004v.011c-1.019.096-1.366.832-1.366 1.582 0 .863.54 1.588 1.514 1.625a7.4 7.4 0 0 0 3.464-.947z"/>
  <path fill="#002140" d="M48.15 15.38q0-.15-.01-.3a4.19 4.19 0 0 0-4.187-3.891c-2.22 0-3.875 1.57-4.156 3.61v.287H36.55v-.27A7.405 7.405 0 0 1 43.937 8c3.897 0 7.251 3.152 7.403 7.099q.006.145.005.292a7.39 7.39 0 0 1-3.778 6.445 7.4 7.4 0 0 1-3.464.947c-.974-.038-1.514-.762-1.514-1.625 0-.751.347-1.486 1.366-1.582v-.01c.054 0 .102 0 .156-.005a4.16 4.16 0 0 0 2.463-.913 4.16 4.16 0 0 0 1.579-3.27zm-28.873-.772v.478h-3.292l.015-.27c.297-3.81 3.492-6.814 7.387-6.814s7.242 3.146 7.403 7.087q.006.15.006.306a7.39 7.39 0 0 1-3.779 6.445 7.4 7.4 0 0 1-3.463.947c-.975-.039-1.514-.762-1.514-1.626 0-.75.346-1.485 1.366-1.581v-.011c.053 0 .101 0 .155-.004a4.16 4.16 0 0 0 2.463-.914 4.16 4.16 0 0 0 1.568-3.562 4.2 4.2 0 0 0-8.313-.477z"/>
  <path fill="#FFFAF0" d="M54.125 26.251h.413v26.68a3.53 3.53 0 0 1-3.522 3.516H16.617a3.53 3.53 0 0 1-3.523-3.516v-26.68z"/>
  <path fill="#FED607" d="M51.366 15.1c1.775.18 3.172 1.685 3.172 3.502v7.65H44.127v-1.586a3.52 3.52 0 0 0 3.452-2.807l-.011-.02a7.39 7.39 0 0 0 3.779-6.446q-.002-.149-.006-.293z"/>
  <path fill="#FED607" d="M48.15 15.38a4.17 4.17 0 0 1-1.578 3.27l-.09-.111a3.52 3.52 0 0 0-2.356-.903 3.52 3.52 0 0 0-3.523 3.516 3.52 3.52 0 0 0 3.523 3.516v1.585H23.578v-1.585a3.52 3.52 0 0 0 3.452-2.808l-.01-.02a7.39 7.39 0 0 0 3.778-6.445q-.002-.155-.006-.306l.126-.003h17.129l.094-.006q.013.15.012.3z"/>
  <path fill="#FED607" d="M23.578 26.251H13.095v-7.65a3.527 3.527 0 0 1 3.522-3.515H27.59q.013.144.011.292a4.17 4.17 0 0 1-1.579 3.27l-.089-.111a3.52 3.52 0 0 0-2.357-.903 3.52 3.52 0 0 0-3.523 3.516 3.52 3.52 0 0 0 3.523 3.516v1.585z"/>
  <path stroke="#002140" stroke-miterlimit="10" d="M30.916 15.086h17.129m-31.958 0h11.516M16.617 56.447a3.53 3.53 0 0 1-3.523-3.516v-34.33a3.527 3.527 0 0 1 3.523-3.515"/>
  <path stroke="#002140" stroke-miterlimit="10" d="M51.296 15.1c1.816.18 3.242 1.683 3.242 3.5v34.316c0 1.933-1.62 3.514-3.6 3.514H15.995M13 26.251h41.126M15.98 15.395q-.001-.124.005-.25c-.003-.02 0-.04 0-.06l.015-.27m0 .002c.297-3.812 3.492-6.815 7.387-6.815s7.242 3.146 7.403 7.087q.006.15.006.306a7.39 7.39 0 0 1-3.779 6.445 7.4 7.4 0 0 1-3.463.947q-.084.005-.167.004"/>
  <path stroke="#002140" stroke-miterlimit="10" d="m19.247 14.799.03-.19a4.2 4.2 0 0 1 8.324.769 4.17 4.17 0 0 1-1.579 3.27 4.14 4.14 0 0 1-2.463.913q-.078.005-.155.004m.436 3.215q-.084.008-.168.009-.061.001-.116-.004c-.975-.039-1.514-.762-1.514-1.625 0-.751.346-1.486 1.365-1.582q.075-.008.156-.011m12.987-4.75a7.405 7.405 0 0 1 7.387-6.815c3.897 0 7.251 3.151 7.403 7.098q.006.146.005.293a7.39 7.39 0 0 1-3.778 6.445 7.4 7.4 0 0 1-3.464.947q-.082.005-.166.004"/>
  <path stroke="#002140" stroke-miterlimit="10" d="M39.797 14.799a4.195 4.195 0 0 1 4.156-3.61c2.12 0 4.035 1.716 4.187 3.891q.012.15.01.3a4.17 4.17 0 0 1-1.578 3.27 4.14 4.14 0 0 1-2.463.913c-.054.004-.102.004-.156.004m.436 3.213q-.084.008-.167.009-.06.001-.117-.004c-.974-.039-1.514-.762-1.514-1.625 0-.751.347-1.486 1.366-1.582q.075-.008.156-.011"/>
  <path fill="#50EEF6" stroke="#002140" d="m34.69 37.605-.006-.002c-.718-.213-1.254-.42-1.612-.702-.322-.254-.51-.574-.51-1.1 0-.563.211-.957.528-1.22.328-.271.81-.433 1.39-.433.543 0 .99.169 1.344.484.36.32.657.82.837 1.527l.01.04.017.038.036.083c.082.19.198.459.351.682.182.264.496.578.987.578.573 0 .94-.423 1.139-.882.202-.466.299-1.097.299-1.835 0-.759-.12-1.55-.37-2.172-.23-.574-.67-1.228-1.422-1.228-.439 0-.798.21-1.037.54a6 6 0 0 0-.697-.276l.104-.738.002-.011.001-.011a7 7 0 0 1 .037-.305c.012-.094.028-.217.028-.32 0-.252-.053-.555-.274-.793-.228-.245-.542-.325-.851-.325-.368 0-.699.131-.942.423-.22.264-.328.615-.385.98l-.002.01-.11.783c-2.716.225-5.061 2.157-5.061 5.149 0 1.447.558 2.531 1.42 3.332.845.786 1.964 1.283 3.08 1.624l.005.001c.711.208 1.258.445 1.624.757.34.29.538.653.538 1.194 0 .562-.216.986-.557 1.278-.349.297-.862.482-1.485.482-1.2 0-2.25-.864-2.696-2.12-.031-.087-.065-.19-.101-.3a8 8 0 0 0-.301-.815 1.9 1.9 0 0 0-.342-.53.95.95 0 0 0-.685-.307c-.557 0-.942.436-1.161.92-.23.505-.36 1.212-.36 2.096 0 .934.159 1.79.437 2.43.14.32.318.608.543.824.228.218.524.38.874.38.46 0 .822-.224 1.066-.552.375.176.808.339 1.271.46l-.102.73a4 4 0 0 0-.068.653c0 .253.053.555.274.793.227.245.542.325.85.325.365 0 .7-.129.947-.419.227-.267.336-.623.383-.998l.113-.866c2.885-.24 5.12-2.237 5.12-5.189 0-1.438-.53-2.556-1.379-3.4-.836-.833-1.961-1.382-3.14-1.747Z"/>
</svg>
